!!!COM: Music21
!!!OTL: Marcha procesional de Vilalba
!!!OMV: pezas_marchas_marcha-procesional-de-vilalba_marcha-procesional-de-vilalba-partitura.musicxml
**kern
*I"Gaita
*I'Bag
*clefG^2
*k[]
*M6/8
*MM108
=1
!LO:TX:a:t=[quarter-dot]=72
8.cccL
16ggK
8eeJ
8.aaL
16ffK
8ddJ
=
8ggL
16ggL
16ff
16ee
16ddJJ
16eeLL
16ff
16ee
16ddJ
8ccJ
=
8.cccL
16ggK
8eeJ
8.aaL
16ffK
8ddJ
=
8ggL
16ggL
16ff
16ee
16ddJJ
4.cc
=||
*M6/8
*MM108
!LO:TX:a:t=[quarter-dot]=72
8.cccL
16ggK
8eeJ
8.aaL
16ffK
8ddJ
!!linebreak:original
=
8ggL
16ggL
16ff
16ee
16ddJJ
16eeLL
16ff
16ee
16ddJ
8ccJ
=
8.cccL
16ggK
8eeJ
8.aaL
16ffK
8ddJ
=
8ggL
16ggL
16ff
16ee
16ddJJ
4.cc
=||
8eeL
8ff
8ggJ
4aa
8ff
!!linebreak:original
=
8aaL
16aaL
16gg
16ff
16eeJJ
16aaLL
16bb
16aa
16ffJ
8ddJ
=
8ddL
8ee
8ffJ
4gg
8aa
=
8ggL
16ggL
16ff
16ee
16ddJJ
4.cc
==
*-
